resources/svg/phonecall-blocked-o.svg

<svg xmlns="http://www.w3.org/2000/svg" viewBox="0 0 15 15" fill="none"><path d="M13.5 1.5L9.5 5.5M2.5 0.5H4.71922C5.17809 0.5 5.57807 0.812297 5.68937 1.25746L6.2754 3.60162C6.40214 4.10855 6.11721 4.6276 5.62149 4.79284L4.51286 5.16238C3.93422 5.35526 3.58976 5.94882 3.70938 6.54691C4.18814 8.94071 6.05929 10.8119 8.45309 11.2906C9.05118 11.4102 9.64474 11.0658 9.83762 10.4871L10.1354 9.59384C10.3278 9.01652 10.987 8.74349 11.5313 9.01564L13.9472 10.2236C14.286 10.393 14.5 10.7393 14.5 11.118V12.5C14.5 13.6046 13.6046 14.5 12.5 14.5H10.5C4.97715 14.5 0.5 10.0228 0.5 4.5V2.5C0.5 1.39543 1.39543 0.5 2.5 0.5ZM11.5 6.5C9.84315 6.5 8.5 5.15685 8.5 3.5C8.5 1.84315 9.84315 0.5 11.5 0.5C13.1569 0.5 14.5 1.84315 14.5 3.5C14.5 5.15685 13.1569 6.5 11.5 6.5Z" stroke="black"/></svg>

<svg xmlns="http://www.w3.org/2000/svg" viewBox="0 0 15 15" fill="none"><path d="M13.5 1.5l-4 4m-7-5h2.22a1 1 0 01.97.757l.585 2.345a1 1 0 01-.654 1.19l-1.108.37a1.21 1.21 0 00-.804 1.385 6.047 6.047 0 004.744 4.744 1.21 1.21 0 001.385-.804l.297-.893a1 1 0 011.396-.578l2.416 1.208a1 1 0 01.553.894V12.5a2 2 0 01-2 2h-2c-5.523 0-10-4.477-10-10v-2a2 2 0 012-2zm9 6a3 3 0 110-6 3 3 0 010 6z" stroke="currentColor"/></svg>
